X: 30314
T: Old Man Quinn
R: hornpipe
M: 4/4
K: Fmajor
cB|:AFAc fagf|ebge cBAG|Acfa bgaf|e2 c2 cdcB|
AFAc fagf|ebge cBAG|AfdB AcGc|1 A2F2F2 cB:|2 A2F2F2 fg||
|:afcf c'bgf|gceg bgfe|fedc Bagf|e2 c2 cdcB|
AFAc fagf|edcB AGFE|DfdB AcGc|1 A2F2F2 fg:|2 A2F2F2 cB||
|:ABGA FAcf|efde cega|afga bgaf|e2c2c2 fe|
dfdf cfBf|dfdf cfBf|Acfa bgaf|A2F2F2||

